X:1
T:Lily of the West, The
L:1/4
M:6/4
K:D
D|"D"D2 B "A"A2 B|"Bm"(F E) "A"A F2 (E|D) (B, C) D2 D|"D"D3 z (F G)|
"D"A2 F "A"(A B) c|"Bm"d2 d c2 B|"D"A2 F (F G) A|"G"(B3 B) z (B|
"D"A2) F "A"(A B) c|"Bm"d2 d "A"c2 (B|"D"A2) F (F G) A|"G"B3 z (F E)|
"D"D2 B "A"A2 (B A)|"Bm"F2 A "A"F2 E|"G"(D B,) C "D"D2 D|"D"(D3 D)|]
